X: 29329
T: Newark Bay
R: jig
M: 6/8
K: Dmajor
EGB efg|acf dcB|g2g efg|acf dcB|
EGB efg|acf dcB|1 geg bgb|acd e3:|2 geg bgb|acd ega||
bge BGE|CFG AGF|GBG EGE|FAF Bcd|
Bge Bc=d|c=c^c a2a|gbg ege|fcd e2e:|

